public/svg/white/exp.svg

<svg xmlns="http://www.w3.org/2000/svg" width="32" height="32" viewBox="0 0 32 32"><path fill="#FFF" fill-rule="evenodd" d="M16,32 C7.163444,32 0,24.836556 0,16 C0,7.163444 7.163444,0 16,0 C24.836556,0 32,7.163444 32,16 C32,24.836556 24.836556,32 16,32 Z M26,14.7173145 L26,10.7332155 C25.95736,10.7491519 25.91162,10.7598799 25.87254,10.7818021 C24.32052,11.6526678 22.76946,12.5251078 21.2167,13.3946908 C21.1369,13.4393905 21.12956,13.4779876 21.16682,13.5558622 C21.94796,15.1885071 21.94516,16.8203746 21.1516,18.4483163 C21.11166,18.5302527 21.11874,18.5711625 21.20186,18.617417 C22.75418,19.4812085 24.30504,20.3475071 25.85642,21.2129311 C25.88604,21.2294311 25.91822,21.2415777 25.96174,21.2615177 C25.96658,21.1629064 25.97378,21.0825053 25.97396,21.0020848 C25.97582,20.1664929 25.97568,19.3309011 25.9778,18.4953092 C25.9809,17.2743481 25.9853,16.0534258 25.9897,14.8325035 C25.98984,14.7940813 25.99642,14.7557173 26,14.7173145 Z M16.3,5 L16.28,5 C16.27414,5.04773145 16.2632,5.0954629 16.26318,5.14319435 C16.26312,5.84268551 16.26362,6.54219611 16.26576,7.24166784 C16.26886,8.25518375 16.27472,9.26868021 16.2752,10.2821767 C16.27524,10.3807102 16.31156,10.417364 16.40692,10.4167032 C16.46008,10.4163339 16.51362,10.4203569 16.56648,10.4265371 C18.34964,10.634818 19.7538,11.4554064 20.77724,12.8899152 C20.8585,13.0038216 20.85698,13.0052208 20.9776,12.9378799 C22.517,12.0785 24.05634,11.2190424 25.59556,10.3593516 C25.62606,10.3423074 25.65476,10.3222509 25.69734,10.2953922 C25.65016,10.2667261 25.61754,10.2455813 25.58368,10.2265548 C22.56754,8.53175795 19.55126,6.83715548 16.53526,5.14210601 C16.45538,5.09721201 16.37836,5.0474788 16.3,5 Z M15.68,27 L15.74,27 C15.74384,26.9749293 15.75106,26.9498392 15.75102,26.9247686 C15.74966,26.0763887 15.74784,25.2280088 15.74558,24.3796484 C15.74318,23.482682 15.73882,22.5857155 15.73958,21.6887686 C15.73966,21.5889329 15.70216,21.5628905 15.60598,21.5585565 C15.43658,21.5508799 15.26624,21.5380336 15.09912,21.5109028 C13.46,21.2445901 12.1537,20.4595088 11.19834,19.1336979 C11.14144,19.054735 11.0983,19.0350671 11.00584,19.0868993 C9.4769,19.9442191 7.94598,20.7982155 6.41572,21.6533198 C6.38628,21.6697615 6.35954,21.6907314 6.31952,21.7177067 C6.37856,21.752553 6.42032,21.778265 6.46308,21.8023057 C9.50182,23.5103763 12.54066,25.2182721 15.57914,26.9268092 C15.6152,26.9470989 15.64648,26.9754152 15.68,27 Z M6,20.45053 L6,21.2667845 C6.04484,21.255765 6.09518,21.253977 6.13374,21.2323657 C7.66288,20.3751237 9.19094,19.5160936 10.71914,18.6572774 C10.84906,18.5842809 10.84658,18.5853498 10.78222,18.452689 C9.98562,16.8104435 9.98224,15.1669735 10.78158,13.5251943 C10.82642,13.4330936 10.81356,13.3950212 10.7249,13.3456961 C9.20148,12.4983074 7.67996,11.6477509 6.15784,10.7981466 C6.128,10.7814912 6.0962,10.7681396 6.05228,10.7469753 C6.04896,10.7917527 6.04524,10.8196608 6.04506,10.8475883 C6.0431,11.1681625 6.0412,11.4887367 6.04018,11.8093304 C6.03548,13.2956714 6.03076,14.7820318 6.02666,16.2683728 C6.02404,17.210583 6.0226,18.1528127 6.02036,19.0950424 C6.01936,19.5159965 6.01804,19.9369505 6.01566,20.3579046 C6.01548,20.3888057 6.00544,20.4196484 6,20.45053 Z M19.472792,19.5192051 C19.470392,19.4781786 19.467132,19.4371716 19.465712,19.3961062 C19.448392,18.8853253 19.377752,18.3828818 19.199852,17.8997175 C19.006932,17.3757405 18.727892,16.90688 18.259312,16.5654913 C18.148772,16.4849542 18.144352,16.4863924 18.075552,16.6038359 C17.809152,17.058373 17.503232,17.4849825 17.138392,17.871032 C15.707732,19.384873 13.806312,19.6517687 12.077392,19.0561557 C12.043992,19.0446504 12.011752,19.0298412 11.978972,19.0165867 C12.337632,19.0433677 12.690092,19.0635991 13.041592,19.0107758 C13.798972,18.8969277 14.412032,18.5634295 14.802752,17.8994454 C14.877272,17.7727899 14.876552,17.7720125 14.739492,17.7114348 C13.682772,17.2444984 12.960292,16.4788129 12.575792,15.4151945 C12.267192,14.5615479 12.216452,13.6816645 12.310112,12.7888571 C12.318552,12.7083783 12.329172,12.6280355 12.341452,12.5480231 C12.353652,12.4684772 12.369212,12.3894171 12.383292,12.3101433 C12.406972,12.3389648 12.413232,12.3668924 12.421172,12.394373 C12.520912,12.7398235 12.607312,13.0896468 12.724432,13.4294613 C12.857652,13.8159966 13.061532,14.1688323 13.353392,14.4678147 C13.499912,14.6179277 13.668572,14.736479 13.871292,14.8054719 C14.025932,14.8580814 14.031312,14.8566822 14.111552,14.7152564 C14.679152,13.715092 15.509592,13.0117917 16.619992,12.6302122 C17.490512,12.3310744 18.389032,12.2711769 19.301972,12.3572334 C19.448952,12.3710903 19.595132,12.3927405 19.741672,12.4107758 C19.748692,12.4002228 19.755712,12.3896698 19.762712,12.3791168 C19.706592,12.3309966 19.650612,12.2827599 19.594372,12.2348147 C18.100712,10.9610885 16.395492,10.5517369 14.472292,11.0653747 C11.912112,11.7491044 10.195612,14.3400125 10.764472,17.0186486 C11.372332,19.880767 14.341452,21.6833482 17.267812,20.9634896 C19.906052,20.314509 21.605172,17.8675143 21.221532,15.2606698 C21.067692,14.2153005 20.616072,13.3024171 19.884752,12.521767 C19.847552,12.4820814 19.776852,12.4470602 19.724132,12.4500143 C19.293352,12.4742104 18.869832,12.5409101 18.465992,12.6964843 C17.885092,12.9203129 17.415032,13.2695532 17.146252,13.8331186 C17.027452,14.0821539 17.048432,14.0320125 17.249452,14.1329366 C18.006972,14.5131557 18.628212,15.0356557 19.059412,15.758138 C19.433312,16.3846133 19.611112,17.0662829 19.653812,17.7841786 C19.688612,18.3691998 19.636232,18.9472634 19.472792,19.5192051 Z M25.740566,21.7317541 C25.684566,21.6985403 25.649326,21.6764237 25.612946,21.6562505 C24.065106,20.7977452 22.517146,19.9394343 20.969226,19.0810261 C20.831986,19.0049201 20.833086,19.0054254 20.739066,19.1340827 C19.668606,20.5990067 18.210586,21.40533 16.369546,21.5573866 C16.286606,21.564247 16.264066,21.592194 16.264146,21.6697382 C16.265986,23.3993424 16.265486,25.1289661 16.265986,26.8585703 C16.265986,26.8924449 16.272546,26.9263194 16.278186,26.9808141 C19.437486,25.2282576 22.579826,23.4851074 25.740566,21.7317541 Z M15.73871,5.03636413 C15.67099,5.07157968 15.61909,5.09707792 15.56863,5.12504435 C12.53151,6.81014329 9.49443,8.4953394 6.45787,10.1814101 C6.40271,10.212039 6.35369,10.253085 6.30179,10.2892917 C6.35277,10.3225832 6.40185,10.3591398 6.45503,10.3886998 C7.96145,11.2258076 9.46829,12.0622546 10.97509,12.8987016 C11.10161,12.9689383 11.10017,12.967539 11.18559,12.8502511 C12.27371,11.3558641 13.75925,10.5432829 15.63631,10.4073376 C15.73537,10.4001663 15.74693,10.3600143 15.74685,10.2803129 C15.74527,8.57366095 15.74567,6.86698958 15.74539,5.1603182 C15.74539,5.12624929 15.74183,5.09218039 15.73871,5.03636413 Z"/></svg>

<svg xmlns="http://www.w3.org/2000/svg" width="32" height="32" viewBox="0 0 32 32"><path fill="#FFF" fill-rule="evenodd" d="M16 32C7.163 32 0 24.837 0 16S7.163 0 16 0s16 7.163 16 16-7.163 16-16 16zm10-17.283v-3.984c-.043.016-.088.027-.127.049l-4.656 2.613c-.08.044-.087.083-.05.16.781 1.634.778 3.265-.015 4.893-.04.082-.033.123.05.17 1.552.863 3.103 1.73 4.654 2.595.03.016.062.029.106.049.005-.1.012-.18.012-.26l.004-2.507c.003-1.22.007-2.442.012-3.662 0-.039.006-.077.01-.116zM16.3 5h-.02c-.006.048-.017.095-.017.143 0 .7 0 1.4.003 2.099.003 1.013.009 2.027.01 3.04 0 .099.036.135.13.135a1.3 1.3 0 01.16.01c1.784.208 3.188 1.028 4.211 2.463.081.114.08.115.2.048l4.619-2.579c.03-.017.059-.037.101-.064-.047-.028-.08-.05-.113-.068l-9.049-5.085c-.08-.045-.157-.095-.235-.142zm-.62 22h.06c.004-.025.011-.05.011-.075l-.005-2.545c-.003-.897-.007-1.794-.006-2.691 0-.1-.038-.126-.134-.13a4.507 4.507 0 01-.507-.048c-1.639-.266-2.945-1.051-3.9-2.377-.058-.08-.1-.099-.193-.047-1.53.857-3.06 1.711-4.59 2.566-.03.017-.056.038-.096.065.059.035.1.06.143.084l9.116 5.125c.036.02.067.048.101.073zM6 20.45v.817c.045-.011.095-.013.134-.035a4127.01 4127.01 0 004.585-2.575c.13-.073.128-.072.063-.204-.796-1.643-.8-3.286 0-4.928.044-.092.032-.13-.057-.18-1.524-.847-3.045-1.697-4.567-2.547-.03-.017-.062-.03-.106-.051-.003.045-.007.073-.007.1l-.005.962c-.005 1.487-.01 2.973-.013 4.46l-.007 2.826c0 .421-.002.842-.004 1.263 0 .03-.01.062-.016.093zm13.473-.93c-.003-.042-.006-.083-.007-.124-.018-.51-.088-1.013-.266-1.496-.193-.524-.472-.993-.94-1.335-.111-.08-.116-.079-.184.039a6.93 6.93 0 01-.938 1.267c-1.43 1.514-3.332 1.78-5.06 1.185-.034-.011-.066-.026-.099-.04.359.027.711.048 1.063-.005.757-.114 1.37-.448 1.76-1.112.075-.126.075-.127-.063-.188-1.056-.467-1.779-1.232-2.163-2.296-.309-.853-.36-1.733-.266-2.626.009-.08.02-.161.031-.241.013-.08.028-.159.042-.238.024.029.03.057.038.084.1.346.186.696.303 1.035.134.387.338.74.63 1.039.146.15.315.268.517.337.155.053.16.052.24-.09a4.465 4.465 0 012.509-2.085c.87-.299 1.769-.359 2.682-.273.147.014.293.036.44.054l.02-.032-.168-.144c-1.493-1.274-3.199-1.683-5.122-1.17-2.56.684-4.276 3.275-3.708 5.954.608 2.862 3.577 4.664 6.504 3.944 2.638-.648 4.337-3.095 3.954-5.702a4.994 4.994 0 00-1.337-2.74.236.236 0 00-.16-.071 4.11 4.11 0 00-1.259.246c-.58.224-1.051.574-1.32 1.137-.119.25-.098.199.103.3.758.38 1.38.903 1.81 1.625.374.627.552 1.308.595 2.026a5.147 5.147 0 01-.181 1.735zm6.268 2.212c-.056-.033-.092-.056-.128-.076l-4.644-2.575c-.137-.076-.136-.076-.23.053-1.07 1.465-2.528 2.271-4.37 2.423-.082.007-.105.035-.105.113.002 1.73.001 3.459.002 5.189 0 .033.007.067.012.122l9.463-5.25zM15.739 5.036c-.068.036-.12.061-.17.089-3.037 1.685-6.075 3.37-9.111 5.056-.055.031-.104.072-.156.108.05.034.1.07.153.1l4.52 2.51c.127.07.125.069.21-.049 1.089-1.494 2.574-2.307 4.451-2.443.1-.007.11-.047.11-.127V5.16c0-.034-.004-.068-.007-.124z"/></svg>
